Adwaita++/status/symbolic/network-cellular-3g-symbolic.svg

<svg xmlns="http://www.w3.org/2000/svg" width="16" height="16">
    <path d="M2.063 0C.911 0 0 .912 0 2.063v11.874C0 15.088.912 16 2.063 16h11.874C15.088 16 16 15.088 16 13.937V2.063C16 .911 15.088 0 13.937 0zM2 3h4a1 1 0 0 1 .875 1.438L5.5 7.217c.355.116.75.196.969.438C6.8 8.022 7 8.466 7 9v2c0 1.112-.907 2-2 2H2v-2h3V9H4a1 1 0 0 1-.875-1.438L4.375 5H2zm8.063.031h1.906c.003 0-.003.032 0 .031.527-.02 1.072.077 1.5.47.415.38.593 1.007.562 1.593h.031V6h-2v-.968c-.017-.003.003-.003-.03 0H10.03c-.006.003-.029-.004-.03 0-.008.022.006.046 0 .062V10.938c-.024-.022 0 .062 0 .062h1.968c.007-.02.03-.016.031 0V9.031h-1v-2h3v3.938c0 .562-.227 1-.562 1.375a1.966 1.966 0 0 1-1.47.625V13H10c-.625 0-.994-.241-1.344-.563A1.863 1.863 0 0 1 8.031 11c0-.002-.03.002-.03 0V4.937c.062-.437.205-.889.562-1.28.357-.393.946-.626 1.5-.626z" style="marker:none" color="#bebebe" overflow="visible" fill="#474747"/>
</svg>

<svg xmlns="http://www.w3.org/2000/svg" width="16" height="16" version="1.1">
 <path style="fill:#444444" d="M 2 1 C 0.892 1 0 1.892 0 3 L 0 13 C 0 14.108 0.892 15 2 15 L 14 15 C 15.108 15 16 14.108 16 13 L 16 3 C 16 1.892 15.108 1 14 1 L 2 1 z M 2 3 L 6 3 C 6.666 3.02 7.168 3.8395 6.877 4.4395 L 5.502 7.2207 C 5.856 7.3307 6.2497 7.4102 6.4688 7.6602 C 6.8017 8.0202 7 8.47 7 9 L 7 11 C 7 12.11 6.093 13 5 13 L 2 13 L 2 11 L 5 11 L 5 9 L 4 9 C 3.334 8.98 2.835 8.1605 3.127 7.5605 L 4.377 5 L 2 5 L 2 3 z M 10 3 L 12 3 C 14 3 14 5 14 5 L 14 6 L 12 6 L 12 5 L 10 5 L 10 11 L 12 11 L 12 9 L 11 9 L 11 7 L 14 7 L 14 11 C 14 11 14 13 12 13 L 10 13 C 10 13 8 13 8 11 L 8 5 C 8 3 10 3 10 3 z"/>
</svg>
